is/Facebook.svg

<svg xmlns="http://www.w3.org/2000/svg" xmlns:xlink="http://www.w3.org/1999/xlink" xmlns:sodipodi="http://sodipodi.sourceforge.net/DTD/sodipodi-0.dtd" xmlns:inkscape="http://www.inkscape.org/namespaces/inkscape" viewBox="0 0 192 192" version="1.1" inkscape:version="0.91 r13725" sodipodi:docname="goa-account-facebook.svg" height="1em" width="1em">
  <sodipodi:namedview pagecolor="#ffffff" bordercolor="#666666" borderopacity="1.0" inkscape:pageopacity="0.0" inkscape:pageshadow="2" inkscape:zoom="3.959798" inkscape:cx="153.97676" inkscape:cy="65.886223" inkscape:document-units="px" inkscape:current-layer="layer1" showgrid="true" units="px" inkscape:showpageshadow="false" borderlayer="true" inkscape:window-width="1920" inkscape:window-height="1023" inkscape:window-x="0" inkscape:window-y="27" inkscape:window-maximized="1" showguides="true" inkscape:guide-bbox="true" inkscape:snap-center="true" inkscape:snap-bbox="true" inkscape:bbox-paths="true" inkscape:object-nodes="true" inkscape:snap-grids="true" inkscape:object-paths="false">
    <inkscape:grid empspacing="4" type="xygrid"/>
    <sodipodi:guide orientation="1,0" position="96,96"/>
    <sodipodi:guide orientation="0,1" position="96,96"/>
  </sodipodi:namedview>
  <defs>
    <linearGradient inkscape:collect="always" id="b">
      <stop style="stop-color:#ffffff;stop-opacity:0.10196079" offset="0"/>
      <stop style="stop-color:#ffffff;stop-opacity:0" offset="1"/>
    </linearGradient>
    <linearGradient inkscape:collect="always" id="a">
      <stop style="stop-color:#1a237e;stop-opacity:0.2" offset="0"/>
      <stop style="stop-color:#1a237e;stop-opacity:0" offset="1"/>
    </linearGradient>
    <clipPath id="e" clipPathUnits="userSpaceOnUse">
      <rect ry="12" rx="12" y="880.36218" x="20" height="152" width="152" style="color:#000000;clip-rule:nonzero;display:inline;overflow:visible;visibility:visible;opacity:1;isolation:auto;mix-blend-mode:normal;color-interpolation:sRGB;color-interpolation-filters:linearRGB;solid-color:#000000;solid-opacity:1;fill:#3c5a99;fill-opacity:1;fill-rule:evenodd;stroke:none;stroke-width:0.5;stroke-linecap:butt;stroke-linejoin:round;stroke-miterlimit:4;stroke-dasharray:none;stroke-dashoffset:0;stroke-opacity:1;color-rendering:auto;image-rendering:auto;shape-rendering:auto;text-rendering:auto;enable-background:accumulate"/>
    </clipPath>
    <linearGradient inkscape:collect="always" xlink:href="#a" id="d" x1="81.380859" y1="42.951172" x2="172" y2="133.57031" gradientUnits="userSpaceOnUse"/>
    <radialGradient inkscape:collect="always" xlink:href="#b" id="g" cx="20" cy="880.36218" fx="20" fy="880.36218" r="76" gradientUnits="userSpaceOnUse" gradientTransform="matrix(2.0000003,2.0000004,-2.0000007,2.0000007,1740.7249,-920.36274)"/>
    <filter style="color-interpolation-filters:sRGB" inkscape:label="Drop Shadow" id="f" width="2">
      <feFlood flood-opacity="0.2" flood-color="rgb(26,35,126)" result="flood"/>
      <feComposite in="flood" in2="SourceGraphic" operator="in" result="composite1"/>
      <feGaussianBlur in="composite1" stdDeviation="4" result="blur"/>
      <feOffset dx="4" dy="4" result="offset"/>
      <feComposite in="SourceGraphic" in2="offset" operator="over" result="composite2"/>
    </filter>
    <filter style="color-interpolation-filters:sRGB" inkscape:label="Drop Shadow" id="c">
      <feFlood flood-opacity="0.12" flood-color="rgb(0,0,0)" result="flood"/>
      <feComposite in="flood" in2="SourceGraphic" operator="in" result="composite1"/>
      <feGaussianBlur in="composite1" stdDeviation="2" result="blur"/>
      <feOffset dx="0" dy="0" result="offset"/>
      <feComposite in="SourceGraphic" in2="offset" operator="over" result="fbSourceGraphic"/>
      <feColorMatrix result="fbSourceGraphicAlpha" in="fbSourceGraphic" values="0 0 0 -1 0 0 0 0 -1 0 0 0 0 -1 0 0 0 0 1 0"/>
      <feFlood flood-opacity="0.23999999999999999" flood-color="rgb(0,0,0)" result="flood" in="fbSourceGraphic"/>
      <feComposite in2="fbSourceGraphic" in="flood" operator="in" result="composite1"/>
      <feGaussianBlur in="composite1" stdDeviation="2" result="blur"/>
      <feOffset dx="0" dy="4" result="offset"/>
      <feComposite in2="offset" in="fbSourceGraphic" operator="over" result="composite2"/>
    </filter>
  </defs>
  <g transform="translate(0,-860.36216)" inkscape:groupmode="layer" inkscape:label="Main">
    <rect ry="12" rx="12" y="880.36218" x="20" height="152" width="152" style="color:#000000;clip-rule:nonzero;display:inline;overflow:visible;visibility:visible;opacity:1;isolation:auto;mix-blend-mode:normal;color-interpolation:sRGB;color-interpolation-filters:linearRGB;solid-color:#000000;solid-opacity:1;fill:#3c5a99;fill-opacity:1;fill-rule:evenodd;stroke:none;stroke-width:0.5;stroke-linecap:butt;stroke-linejoin:round;stroke-miterlimit:4;stroke-dasharray:none;stroke-dashoffset:0;stroke-opacity:1;color-rendering:auto;image-rendering:auto;shape-rendering:auto;text-rendering:auto;enable-background:accumulate;filter:url(#c)"/>
    <path style="opacity:1;fill:url(#d);fill-opacity:1" d="M 130.69336 42.951172 C 113.17942 42.951172 101.1875 53.642991 101.1875 73.275391 L 101.1875 90.193359 L 81.380859 90.193359 L 81.380859 113.13281 L 101.1875 132.94336 L 101.1875 171.99414 C 101.1875 171.99355 101.19521 172.00049 101.19531 172 L 160 172 C 166.648 172 172 166.648 172 160 L 172 67.888672 C 158.02446 53.869443 148.39413 44.116629 148.39453 43.855469 C 146.29368 43.575969 139.08259 42.951172 130.69336 42.951172 z" transform="translate(0,860.36216)"/>
    <path inkscape:connector-curvature="0" d="m 32,880.36216 c -6.648,0 -12,5.352 -12,12 l 0,1 c 0,-6.648 5.352,-12 12,-12 l 128,0 c 6.648,0 12,5.352 12,12 l 0,-1 c 0,-6.648 -5.352,-12 -12,-12 l -128,0 z" style="color:#000000;clip-rule:nonzero;display:inline;overflow:visible;visibility:visible;opacity:0.2;isolation:auto;mix-blend-mode:normal;color-interpolation:sRGB;color-interpolation-filters:linearRGB;solid-color:#000000;solid-opacity:1;fill:#ffffff;fill-opacity:1;fill-rule:evenodd;stroke:none;stroke-width:0.5;stroke-linecap:butt;stroke-linejoin:round;stroke-miterlimit:4;stroke-dasharray:none;stroke-dashoffset:0;stroke-opacity:1;color-rendering:auto;image-rendering:auto;shape-rendering:auto;text-rendering:auto;enable-background:accumulate"/>
    <path transform="translate(0,860.36216)" d="M 20 159 L 20 160 C 20 166.648 25.352 172 32 172 L 101.1875 172 L 101.1875 171 L 32 171 C 25.352 171 20 165.648 20 159 z M 172 159 C 172 165.648 166.648 171 160 171 L 124.87695 171 L 124.87695 172 L 160 172 C 166.648 172 172 166.648 172 160 L 172 159 z" style="color:#000000;clip-rule:nonzero;display:inline;overflow:visible;visibility:visible;opacity:0.2;isolation:auto;mix-blend-mode:normal;color-interpolation:sRGB;color-interpolation-filters:linearRGB;solid-color:#000000;solid-opacity:1;fill:#1a237e;fill-opacity:1;fill-rule:evenodd;stroke:none;stroke-width:0.5;stroke-linecap:butt;stroke-linejoin:round;stroke-miterlimit:4;stroke-dasharray:none;stroke-dashoffset:0;stroke-opacity:1;color-rendering:auto;image-rendering:auto;shape-rendering:auto;text-rendering:auto;enable-background:accumulate"/>
    <path clip-path="url(#e)" sodipodi:nodetypes="cccccscccssccccccc" d="m 124.8778,1042.0057 0,-68.50616 19.75752,0 2.9584,-22.9401 -22.71592,0 0,-14.6458 c 0,-6.6416 1.84429,-11.16772 11.36828,-11.16772 l 12.14741,-0.005 0,-20.51776 c -2.10085,-0.27955 -9.31168,-0.90416 -17.70091,-0.90416 -17.51394,0 -29.50446,10.69061 -29.50446,30.32305 l 0,16.91769 -19.808228,0 0,22.94011 19.808228,0 0,68.50615 23.68968,0 z" style="fill:#f5f5f5;fill-opacity:1;filter:url(#f)" inkscape:connector-curvature="0"/>
    <path transform="translate(0,860.36216)" d="M 101.1875 171 L 101.1875 172 L 124.87695 172 L 124.87695 171 L 101.1875 171 z" style="color:#000000;clip-rule:nonzero;display:inline;overflow:visible;visibility:visible;opacity:0.1;isolation:auto;mix-blend-mode:normal;color-interpolation:sRGB;color-interpolation-filters:linearRGB;solid-color:#000000;solid-opacity:1;fill:#212121;fill-opacity:1;fill-rule:evenodd;stroke:none;stroke-width:0.5;stroke-linecap:butt;stroke-linejoin:round;stroke-miterlimit:4;stroke-dasharray:none;stroke-dashoffset:0;stroke-opacity:1;color-rendering:auto;image-rendering:auto;shape-rendering:auto;text-rendering:auto;enable-background:accumulate"/>
    <path inkscape:connector-curvature="0" d="m 130.69336,903.31893 c -17.51394,0 -29.50586,10.68982 -29.50586,30.32226 l 0,1 c 0,-19.63244 11.99192,-30.32226 29.50586,-30.32226 8.38923,0 15.59837,0.62474 17.69922,0.90429 l 0,-1 c -2.10085,-0.27955 -9.30999,-0.90429 -17.69922,-0.90429 z m -49.312501,47.24023 0,1 19.806641,0 0,-1 -19.806641,0 z m 43.496091,0 0,1 22.58789,0 0.12891,-1 -22.7168,0 z" clip-path="none" style="fill:#ffffff;fill-opacity:1;opacity:0.4"/>
    <path sodipodi:nodetypes="ccscccccccccccccccc" inkscape:connector-curvature="0" transform="translate(0,860.36216)" d="m 148.39258,64.378906 -12.14649,0.0039 c -9.52399,0 -11.36914,4.526369 -11.36914,11.167969 l 0,1 c 0,-6.6416 1.84515,-11.166015 11.36914,-11.166015 l 12.14649,-0.0059 z m -0.92774,26.81836 -2.83007,21.939454 -19.75782,0 0,1 19.75782,0 2.95898,-22.939454 z m -66.083981,21.939454 0,1.00195 19.806641,0 0,-1.00195 z" clip-path="none" style="fill:#1a237e;fill-opacity:1;opacity:0.2"/>
  </g>
  <g sodipodi:insensitive="true" inkscape:label="Finish" inkscape:groupmode="layer">
    <rect transform="translate(0,-860.36216)" ry="12" rx="12" y="880.36218" x="20" height="152" width="152" style="color:#000000;clip-rule:nonzero;display:inline;overflow:visible;visibility:visible;opacity:1;isolation:auto;mix-blend-mode:normal;color-interpolation:sRGB;color-interpolation-filters:linearRGB;solid-color:#000000;solid-opacity:1;fill:url(#g);fill-opacity:1;fill-rule:evenodd;stroke:none;stroke-width:0.5;stroke-linecap:butt;stroke-linejoin:round;stroke-miterlimit:4;stroke-dasharray:none;stroke-dashoffset:0;stroke-opacity:1;color-rendering:auto;image-rendering:auto;shape-rendering:auto;text-rendering:auto;enable-background:accumulate"/>
  </g>
</svg>

<svg xmlns="http://www.w3.org/2000/svg" xmlns:xlink="http://www.w3.org/1999/xlink" viewBox="0 0 192 192" height="1em" width="1em">
  <defs>
    <linearGradient id="b">
      <stop style="stop-color:#fff;stop-opacity:.10196079" offset="0"/>
      <stop style="stop-color:#fff;stop-opacity:0" offset="1"/>
    </linearGradient>
    <linearGradient id="a">
      <stop style="stop-color:#1a237e;stop-opacity:.2" offset="0"/>
      <stop style="stop-color:#1a237e;stop-opacity:0" offset="1"/>
    </linearGradient>
    <linearGradient xlink:href="#a" id="d" x1="81.381" y1="42.951" x2="172" y2="133.57" gradientUnits="userSpaceOnUse"/>
    <filter style="color-interpolation-filters:sRGB" id="f" width="2">
      <feFlood flood-opacity=".2" flood-color="#1A237E" result="flood"/>
      <feComposite in="flood" in2="SourceGraphic" operator="in" result="composite1"/>
      <feGaussianBlur in="composite1" stdDeviation="4" result="blur"/>
      <feOffset dx="4" dy="4" result="offset"/>
      <feComposite in="SourceGraphic" in2="offset" result="composite2"/>
    </filter>
    <filter style="color-interpolation-filters:sRGB" id="c">
      <feFlood flood-opacity=".12" flood-color="#000" result="flood"/>
      <feComposite in="flood" in2="SourceGraphic" operator="in" result="composite1"/>
      <feGaussianBlur in="composite1" stdDeviation="2" result="blur"/>
      <feOffset result="offset"/>
      <feComposite in="SourceGraphic" in2="offset" result="fbSourceGraphic"/>
      <feColorMatrix result="fbSourceGraphicAlpha" in="fbSourceGraphic" values="0 0 0 -1 0 0 0 0 -1 0 0 0 0 -1 0 0 0 0 1 0"/>
      <feFlood flood-opacity=".24" flood-color="#000" result="flood"/>
      <feComposite in2="fbSourceGraphic" in="flood" operator="in" result="composite1"/>
      <feGaussianBlur in="composite1" stdDeviation="2" result="blur"/>
      <feOffset dy="4" result="offset"/>
      <feComposite in2="offset" in="fbSourceGraphic" result="composite2"/>
    </filter>
    <radialGradient xlink:href="#b" id="g" cx="20" cy="880.362" fx="20" fy="880.362" r="76" gradientUnits="userSpaceOnUse" gradientTransform="matrix(2 2 -2 2 1740.725 -920.363)"/>
    <clipPath id="e" clipPathUnits="userSpaceOnUse">
      <rect ry="12" rx="12" y="880.362" x="20" height="152" width="152" style="color:#000;clip-rule:nonzero;display:inline;overflow:visible;visibility:visible;opacity:1;isolation:auto;mix-blend-mode:normal;color-interpolation:sRGB;color-interpolation-filters:linearRGB;solid-color:#000;solid-opacity:1;fill:#3c5a99;fill-opacity:1;fill-rule:evenodd;stroke:none;stroke-width:.5;stroke-linecap:butt;stroke-linejoin:round;stroke-miterlimit:4;stroke-dasharray:none;stroke-dashoffset:0;stroke-opacity:1;color-rendering:auto;image-rendering:auto;shape-rendering:auto;text-rendering:auto;enable-background:accumulate"/>
    </clipPath>
  </defs>
  <g transform="translate(0 -860.362)">
    <rect ry="12" rx="12" y="880.362" x="20" height="152" width="152" style="color:#000;clip-rule:nonzero;display:inline;overflow:visible;visibility:visible;opacity:1;isolation:auto;mix-blend-mode:normal;color-interpolation:sRGB;color-interpolation-filters:linearRGB;solid-color:#000;solid-opacity:1;fill:#3c5a99;fill-opacity:1;fill-rule:evenodd;stroke:none;stroke-width:.5;stroke-linecap:butt;stroke-linejoin:round;stroke-miterlimit:4;stroke-dasharray:none;stroke-dashoffset:0;stroke-opacity:1;color-rendering:auto;image-rendering:auto;shape-rendering:auto;text-rendering:auto;enable-background:accumulate;filter:url(#c)"/>
    <path style="opacity:1;fill:url(#d);fill-opacity:1" d="M130.693 42.951c-17.514 0-29.506 10.692-29.506 30.324v16.918H81.382v22.94l19.806 19.81v39.051l.008.006H160c6.648 0 12-5.352 12-12V67.889c-13.976-14.02-23.606-23.772-23.605-24.034-2.101-.279-9.312-.904-17.702-.904z" transform="translate(0 860.362)"/>
    <path d="M32 880.362c-6.648 0-12 5.352-12 12v1c0-6.648 5.352-12 12-12h128c6.648 0 12 5.352 12 12v-1c0-6.648-5.352-12-12-12H32z" style="color:#000;clip-rule:nonzero;display:inline;overflow:visible;visibility:visible;opacity:.2;isolation:auto;mix-blend-mode:normal;color-interpolation:sRGB;color-interpolation-filters:linearRGB;solid-color:#000;solid-opacity:1;fill:#fff;fill-opacity:1;fill-rule:evenodd;stroke:none;stroke-width:.5;stroke-linecap:butt;stroke-linejoin:round;stroke-miterlimit:4;stroke-dasharray:none;stroke-dashoffset:0;stroke-opacity:1;color-rendering:auto;image-rendering:auto;shape-rendering:auto;text-rendering:auto;enable-background:accumulate"/>
    <path transform="translate(0 860.362)" d="M20 159v1c0 6.648 5.352 12 12 12h69.188v-1H32c-6.648 0-12-5.352-12-12zm152 0c0 6.648-5.352 12-12 12h-35.123v1H160c6.648 0 12-5.352 12-12v-1z" style="color:#000;clip-rule:nonzero;display:inline;overflow:visible;visibility:visible;opacity:.2;isolation:auto;mix-blend-mode:normal;color-interpolation:sRGB;color-interpolation-filters:linearRGB;solid-color:#000;solid-opacity:1;fill:#1a237e;fill-opacity:1;fill-rule:evenodd;stroke:none;stroke-width:.5;stroke-linecap:butt;stroke-linejoin:round;stroke-miterlimit:4;stroke-dasharray:none;stroke-dashoffset:0;stroke-opacity:1;color-rendering:auto;image-rendering:auto;shape-rendering:auto;text-rendering:auto;enable-background:accumulate"/>
    <path clip-path="url(#e)" d="M124.878 1042.006V973.5h19.757l2.959-22.94h-22.716v-14.646c0-6.642 1.844-11.168 11.368-11.168l12.147-.005v-20.518c-2.1-.28-9.311-.904-17.7-.904-17.514 0-29.505 10.69-29.505 30.323v16.918H81.38v22.94h19.808v68.506h23.69z" style="fill:#f5f5f5;fill-opacity:1;filter:url(#f)"/>
    <path transform="translate(0 860.362)" d="M101.188 171v1h23.689v-1h-23.69z" style="color:#000;clip-rule:nonzero;display:inline;overflow:visible;visibility:visible;opacity:.1;isolation:auto;mix-blend-mode:normal;color-interpolation:sRGB;color-interpolation-filters:linearRGB;solid-color:#000;solid-opacity:1;fill:#212121;fill-opacity:1;fill-rule:evenodd;stroke:none;stroke-width:.5;stroke-linecap:butt;stroke-linejoin:round;stroke-miterlimit:4;stroke-dasharray:none;stroke-dashoffset:0;stroke-opacity:1;color-rendering:auto;image-rendering:auto;shape-rendering:auto;text-rendering:auto;enable-background:accumulate"/>
    <path d="M130.693 903.319c-17.514 0-29.505 10.69-29.505 30.322v1c0-19.632 11.991-30.322 29.505-30.322 8.39 0 15.599.625 17.7.904v-1c-2.101-.28-9.31-.904-17.7-.904zm-49.312 47.24v1h19.807v-1H81.38zm43.496 0v1h22.588l.129-1h-22.717z" style="fill:#fff;fill-opacity:1;opacity:.4"/>
    <path transform="translate(0 860.362)" d="m148.393 64.379-12.147.004c-9.524 0-11.37 4.526-11.37 11.168l.001 1c0-6.642 1.845-11.166 11.37-11.166l12.146-.006zm-.928 26.818-2.83 21.94h-19.758v1h19.758l2.959-22.94zm-66.084 21.94v1.002h19.807v-1.002z" style="fill:#1a237e;fill-opacity:1;opacity:.2"/>
  </g>
  <rect transform="translate(0 -860.362)" ry="12" rx="12" y="880.362" x="20" height="152" width="152" style="color:#000;clip-rule:nonzero;display:inline;overflow:visible;visibility:visible;opacity:1;isolation:auto;mix-blend-mode:normal;color-interpolation:sRGB;color-interpolation-filters:linearRGB;solid-color:#000;solid-opacity:1;fill:url(#g);fill-opacity:1;fill-rule:evenodd;stroke:none;stroke-width:.5;stroke-linecap:butt;stroke-linejoin:round;stroke-miterlimit:4;stroke-dasharray:none;stroke-dashoffset:0;stroke-opacity:1;color-rendering:auto;image-rendering:auto;shape-rendering:auto;text-rendering:auto;enable-background:accumulate"/>
</svg>
